X: 171
T: Lady Jane Montgomery's Reel
R: reel
B: William Shepherd "2nd Collection" 1800 p.17 #1
F: http://imslp.org/wiki/File:PMLP73094-Shepherd_Collections_HMT.pdf
C: William Shepherd (17??-1812)
Z: 2012 John Chambers <jc:trillian.mit.edu>
M: C
L: 1/8
K: A
e/d/ |\
Tc>A A/A/A c>Ae>c | d>fe>c d>BB>e | Tc>A A/A/A c>Ae>c |[1 d>fe>d cA A :|[2 d<fB>e cAA ||
e |\
Ta>ga>e f>dTc>A | Ta>ga>f g>ee>g | Ta>ga>e f>dc>A | Td>fB>d c>AA>g |
Ta>ga>e f>dTc>A | a>gf>b g>ee>g | a>bg>a e>ac>A | Td<fB>d cAA |]
